X: 863
T: Sally Johnson
B: jims roots
M:2/4
L:1/16
Q: 1/4=100
K:G
V:1 
|: "G"g2ga b2b2 | abag edd2 | g2ga b2b2 | "D"abag "G"e2ef |
   "G"g2ga b2b2 | abag egg2 | "C"efed "G"BAAG | "C"EGGB "G"AG[G2B] :|
|: "G"[G2B]BA G2E2 | DGGG Bdd2 | [G2B]BA G2E2 | "D"DGGB "G"AG[G2B] |
   "G"[G2B]BA G2E2 | DGGG Bdd2 | e2ef gfed | "D"BAGB "G"AG[G2B] |
   "G"[B,2D][B,D][G,D] [G,2D]Ac | BAGA Bdd2 | [B,2D][B,D][G,D] [G,2D]Ac | "D"BAGB "G"AG[G2B] |
   "G"[B,2D][B,D][G,D] [G,2D]Ac | BAGA Bdd2 |  "C"e2ef gfed | "D"BAGB "G"AG[G2B] :|
% abcbook-tune_id 6298c2878311685c0bceaa2c


% abcbook-boost 0
% abcbook-tablature 
% abcbook-transpose 
% abcbook-lastupdated 1654178440079
% abcbook-soundfonts 
% abcbook-repeats 1


